X:34
T:My Darling is on his Way Home
R:song air
H:Taken down in my young days from Norry Dwane of Glenosheen
B:
M:6/8
L:1/8
K:G
d|edB ABG|EGE D2 E/F/|GAB edB|(A3 A2) B/d/|
edB ABG|E/F/G/A/B/d/ e2 f/e/|dBG AEF|(G3 G2)||B|
def gfe|fdB B2 d|ede fed|(e3 e2) d|
edB ABG|Bdf Hg2 f/e/|dBG AEF|(G3 G2)||
